X: 2627
T: Banana In The Ear
R: jig
M: 6/8
K: Dmajor
A|:d2A BdA|BAF DEF|~E3 e2d|cBA ABc|
d2A BdA|BAF DEF|~E3 e2d|1 cBc d2A:|2 cBc d2c||
|:~d3 ~f3|faf def|~e3 ~g3|gbg abg|
afg efd|edc dAF|E2e e2d|1 cBc d2c:|2 cBc d2A||

